X:259
T:Iron Legs
R:English reel
D:GAH03)
M:4/4
L:1/8
K:G
dc | B2 dB A2 dc | BcAB G2 d2 | e2 f2 g2 ag | fgfe d3 c |
B2 dB A2 dc | BcAB G2 d2 | efga bagf | g2 g2 g2 :|
c2 | bc'bc' abab | bc'bc' abab | gaga fgfg | gaga fgfg |
efef dedf | efef d3 d | efga bagf | g2 g2 g2 :|
